X:3
T:Down The Back Lane
R:Jig
S:Paddy Canny, Clare (fiddle)
D:Home tape of unknown provenance
Z:Bernie Stocks
N:As played
M:6/8
K:G
d |: cAG A2G | FDE (3FEFD | cAA {c}BAG | Ade fed | AcG A2G | 
FDE (3FEFG | Add fdd | e^cA G3 :: Add fdd | cAB {d}cAG | Add fdd |
e^cA ~G3 | Add fdd | cAB cde | (3fgag ed^c | AGF ~G3 :|
<end>
<start>
